X: 1463
T: Frog Puddles, (Pub 1906)
C:Howard Whitney (1869 - 1924)
B: australian traditional tunes wiki
M:6/8
L:1/8
R: Jig
Q: 3/8=100
K:D
V:1 
"D"D2DF2F|A2Ad3|c"A7"dcE2F|G2FE3| cdcE2F|G2FE3|"D"dedF2G|A2GF3|
"D"D2DF2F|A2Ad3|c"A7"dcE2F|G2FE3|"D"dfd"A"c3|"G"BdB"D"A3|"A7"GFG ABc|"D"d3-d3||
|:"D"f2d dcd|"A"F2A ABA|"D"f2d dcd|"G"F2B B3|"D"f2d dcd|"A7"F2A ABA|"G"GFG "A"ABc|"D"d3-d3:|
% abcbook-tune_id 6342d53a9e9fa79e295956e8


% abcbook-boost 0
% abcbook-tablature 
% abcbook-transpose 
% abcbook-lastupdated 1665324366253
% abcbook-soundfonts 
% abcbook-repeats 1
% NFF Book 2008

